X:151
T:Tonva, La
M:2/4
L:1/8
B:Thompson's Compleat Collection of 200 Favourite Country Dances, vol. 3 (London, 1773)
Z:Transcribed and edited by Flynn Titford-Mock, 2007
Z:abc's:AK/Fiddler's Companion
K:G
g/f/g/a/ gd | e/d/e/f/ eB | cAGF | G/F/G/A/ GG | g/f/g/a/ gd | e/d/e/f/ eB | cAGF | G2G2 :|
|: Bd/B/ BG | [c2e2][c2e2] | Bd/B/ BG | [D2B2g2][D2B2g2] | Bd/B/ BG | [c2e2][c2e2] | cAGF | G2G2 :|
|: BBAB | ccBc | ddcB | A2A2 | BBAB | ccBe | dcBA | G2G2 :|
|: DD/F/ EE/G/ | FF/A/ GD | EE/G/ FF/A/ | G2 G2 | DD/F/ EE/G/ | FF/A/ GD | EE/G/ FF/A/ | G2G2 :|

